X: 1
T: Campbell River Jig
C: Dean Kenty
R: jig
N: Named for the town and river on Vancouver Island, British Columbia, Canada
Z: 2011 John Chambers <jc:trillian.mit.edu>
S: http://www.thesession.org/tunes/display/6694
B: Portland Collection v.1
M: 6/8
L: 1/8
K: Bm
B2c |\
"Bm"d3 "A"cBc | "Bm"BFE D>EF | "D"DFA "G"B>cd | "E7"cA^G "A"A2 c |\
"Bm"dfd "A"cec | "Bm"B>FE D2F | B>cd "F#7"cB^A | "Bm"B3 :|
|: FBc |\
"Bm"d2F B>cd | "A"ecA A>Bc | "Bm"dcd "E7"B>cd | "A"e3 cde |\
"D"fed "Bm"BFE | "D"DF/E/D DEF | "G"B>cd "F#7"cB^A | "Bm"B3 :|
